client/public/img/misc/backspace_icon.svg

<?xml version="1.0" encoding="UTF-8" standalone="no"?>
<svg
   width="26"
   height="17"
   viewBox="0 0 26 17"
   fill="none"
   version="1.1"
   id="svg2"
   xmlns="http://www.w3.org/2000/svg"
   xmlns:svg="http://www.w3.org/2000/svg">
  <defs
     id="defs2" />
  <path
     d="M11.5015 5.80729L12.428 4.88084L15.439 7.89181L18.45 4.88084L19.3764 5.80729L16.3654 8.81826L19.3764 11.8293L18.45 12.7557L15.439 9.74474L12.428 12.7558L11.5015 11.8293L14.5125 8.8183L11.5015 5.80729Z"
     fill="#333333"
     id="path1" />
  <path
     fill-rule="evenodd"
     clip-rule="evenodd"
     d="M8.28119 0.957031H25.4199V16.6796H8.28119L0.419922 8.8183L8.28119 0.957031ZM9.36663 3.57745L4.12579 8.8183L9.36663 14.0591H22.7995V3.57745H9.36663Z"
     fill="#333333"
     id="path2" />
</svg>

<svg xmlns="http://www.w3.org/2000/svg" width="26" height="17" fill="none"><path fill="#333" d="m11.502 5.807.926-.926 3.011 3.01 3.011-3.01.926.926-3.01 3.011 3.01 3.011-.926.927-3.011-3.011-3.011 3.01-.927-.926 3.012-3.01z"/><path fill="#333" fill-rule="evenodd" d="M8.281.957H25.42V16.68H8.28L.42 8.818zm1.086 2.62L4.126 8.818l5.24 5.241H22.8V3.577z" clip-rule="evenodd"/></svg>
